X: 26765
T: Mill Stream, The
R: reel
M: 4/4
K: Dmajor
A2 FD EFGA-|ADFD ~G2FG|A2 FD EFGB|1 AFGE D3G:|2 AFGE DEFG||
|:A3 c- cAAG|Addc dfed|cA (3AAA BG (3GGG|AFGE DEFG:|

